X:218 
T:Tommy Gunn's (reel)
C:Tommy Gunn (Belfast)
F:file ID: cre.4/218tommy_g
B:CRE4.151 (Ril Thaimi Mhic Giolla Dhuinn)
Q:180
L:1/8
M:4/4
R:reel
K:G
BA|GE~E2 GEDE|GABd g2 fg|edBA GFGB|AGFE D2 BA|
GE~E2 GEDE|GABd g2fg|eBdB AGFE|DEFD E2 ||
gf|eB~B2 eBfB|eB~B2 g2 fe|dA~A2 dAeA|dA~A2 d2gf|
eB~B2 eBfB|eB~B2 dega|bgaf gfed|Bee^d e2 ||

%%%

